X:275
T: MAEDCHEN SAG MIRS FUER GEWISS
N: E1420
O: Europa, Mitteleuropa, Deutschland, Hessen, Wetterau; Dill - Kreis
R: Staende -, Soldaten - Lied, Liebe
M: 4/4
L: 1/8
K: G
 | D2G2F2A2 | G2E2D4 |
B2B2A2d2 | c2B2A4 |
A2A2A2B2 | G3AB2d2 |
A2A2A2B2 | G3AB2d2 |
c2e2d2B2 | A2A2G4

@@@ Tune index: 4959
